icons/cloud-16.svg

<svg width="16" height="16" viewBox="0 0 16 16" fill="none" xmlns="http://www.w3.org/2000/svg">
<path fill-rule="evenodd" clip-rule="evenodd" d="M2 7.25C2 4.3311 4.3311 2 7.25 2C9.37133 2 11.1862 3.22888 12.0169 5.0287C14.2737 5.28123 16 7.17026 16 9.5C16 12.0047 14.0047 14 11.5 14H3.5C1.54755 14 0 12.4525 0 10.5C0 9.08932 0.80883 7.88564 2.00109 7.32926C2.00039 7.30268 2 7.27618 2 7.25ZM3.54065 7.73151C3.5947 8.11043 3.35475 8.46927 2.98391 8.56406C2.12376 8.78393 1.5 9.55056 1.5 10.5C1.5 11.624 2.37598 12.5 3.5 12.5H11.5C13.1763 12.5 14.5 11.1763 14.5 9.5C14.5 7.82373 13.1763 6.5 11.5 6.5C11.1806 6.5 10.8962 6.29766 10.7914 5.99586C10.2844 4.5347 8.90454 3.5 7.25 3.5C5.15953 3.5 3.5 5.15953 3.5 7.25C3.5 7.33576 3.50883 7.45208 3.52005 7.55976C3.52537 7.61084 3.5307 7.6551 3.53466 7.68626L3.5393 7.72168L3.54045 7.7301L3.54065 7.73151C3.54065 7.73154 3.54065 7.73149 3.54065 7.73151Z" fill="#24292F"/>
</svg>

<svg xmlns="http://www.w3.org/2000/svg" width="16" height="16" viewBox="0 0 16 16"><path fill-rule="evenodd" d="M2 7.25A5.225 5.225 0 017.25 2a5.222 5.222 0 014.767 3.029A4.472 4.472 0 0116 9.5c0 2.505-1.995 4.5-4.5 4.5h-8A3.475 3.475 0 010 10.5c0-1.41.809-2.614 2.001-3.17L2 7.25zm1.54.482a.75.75 0 01-.556.832c-.86.22-1.484.987-1.484 1.936 0 1.124.876 2 2 2h8c1.676 0 3-1.324 3-3s-1.324-3-3-3a.75.75 0 01-.709-.504A3.72 3.72 0 007.25 3.5C5.16 3.5 3.5 5.16 3.5 7.25a3.276 3.276 0 00.035.436l.004.036.001.008v.002z"/></svg>
